X:1
T:Title
%%score 1 { ( 2 4 ) | 3 }
L:1/8
M:6/4
K:Bb
V:1 treble nm="Grand Piano, Soprano"
V:2 bass nm="Choir Pad, Herr Wie Du, Helder"
V:4 bass 
V:3 bass 
V:1
 [EG]4 [DB]2- [DB]2 [DA]2 [B,G]2- | [B,G]2 [EG]2 [DF]2 [CE]2 [A,D]4 | %2
w: By~Bartholomäus~Helder~(1585\-1635) * * * *||
 [^Fd]4 [DB]2- [DB]2 [DA]2 [CG]2- | [CG]2 [EG]2 [D^F]2- [DF]2 [DG]4 | %4
w: ||
 [EG]4 [DB]2- [DB]2 [DA]2 [B,G]2- | [B,G]2 [EG]2 [DF]2 [CE]2 [A,D]4 | %6
w: ||
 [^Fd]4 [DB]2- [DB]2 [DA]2 [CG]2- | [CG]2 [EG]2 [D^F]2- [DF]2 [DG]4 | %8
w: ||
 [EG]4 [Gc]2- [Gc]2 [Gc]2 [FA]2- | [FA]2 [FA]2 [DB]2 [Fc]2 [Fd]4 | %10
w: ||
 [Fd]4 [Fc]2- [Fc]2 [DB]2 [DA]2- | [DA]2 [FB]2 [EG]2 [EG]2 [D^F]4 | %12
w: ||
 [FB]4 [FA]2- [FA]2 [DG]2 [Ec]2- | [Ec]2 [DB]2 [DA]2- [DA]2 [DG]4- | [DG]6 z6 |] %15
w: |||
V:2
 G,4 G,2- G,2 F,2 G,2- | G,2 B,2 B,2 G,2 ^F,4 | A,4 G,2- G,3/2 z/ A,2 B,2- | B,2 C2 A,2- A,2 =B,4 | %4
 G,4 G,2- G,2 F,2 G,2- | G,2 B,2 B,2 G,2 ^F,4 | A,4 G,2- G,3/2 z/ A,2 B,2- | B,2 C2 A,2- A,2 =B,4 | %8
 B,4[K:treble] E2- E2 E2 C2- | C2 D2[K:bass] B,2 A,2 B,4 | B,4 A,2- A,2 G,2 F,2- | %11
 F,2[K:treble] D2 B,2 C2 A,4 | D4 C2- C2[K:bass] B,2 G,2- | G,2 .G,4 ^F,2 =B,4- | B,6 z6 |] %15
V:3
 C,4 G,,2- G,,2 D,2 E,2- | E,2 E,2 B,,2 C,2 D,4 | .D,6 z2 ^F,2 G,2- | G,2 C,2 D,2- D,2 G,,4 | %4
 C,4 G,,2- G,,2 D,2 E,2- | E,2 E,2 B,,2 C,2 D,4 | .D,6 z2 ^F,2 G,2- | G,2 C,2 D,2- D,2 G,,4 | %8
 E,4 C,2- C,2 C,2 F,2- | F,2 D,2 G,2 F,2 B,,4 | B,,4 F,2- F,2 z2 D,2- | D,2 B,,2 E,2 C,2 D,4 | %12
 B,,4 F,2- F,2 .G,4 | z2 .G,,4 z2 G,,4- | G,,6 z6 |] %15
V:4
 x12 | x12 | x12 | x12 | x12 | x12 | x12 | x12 | x4[K:treble] x8 | x4[K:bass] x8 | x12 | %11
 x2[K:treble] x10 | x8[K:bass] x4 | z4 D,2- D,2 z2 z2 | x12 |] %15

